assets/icons/note.svg

<svg xmlns="http://www.w3.org/2000/svg" viewBox="0 0 48 48" role="presentation" aria-hidden="true"><path fill-rule="evenodd" clip-rule="evenodd" d="M14.5285 9.97679C14.5254 9.98424 14.5225 9.99507 14.5225 10.0113V37.9887C14.5225 38.0049 14.5254 38.0158 14.5285 38.0232C14.5319 38.0316 14.5365 38.0379 14.5405 38.0421C14.5408 38.0424 14.5411 38.0427 14.5414 38.043H35.6815C35.6817 38.0427 35.682 38.0424 35.6823 38.0421C35.6864 38.0379 35.6909 38.0316 35.6944 38.0232C35.6974 38.0158 35.7004 38.0049 35.7004 37.9887V10.0113C35.7004 9.99507 35.6974 9.98424 35.6944 9.97679C35.6909 9.96844 35.6864 9.96208 35.6823 9.95789C35.682 9.95758 35.6817 9.9573 35.6815 9.95703H14.5414C14.5411 9.9573 14.5408 9.95758 14.5405 9.95789C14.5365 9.96208 14.5319 9.96844 14.5285 9.97679ZM11.5225 10.0113C11.5225 8.36461 12.831 6.95703 14.5336 6.95703H35.6893C37.3919 6.95703 38.7004 8.36461 38.7004 10.0113V37.9887C38.7004 39.6354 37.3919 41.043 35.6893 41.043H14.5336C12.831 41.043 11.5225 39.6354 11.5225 37.9887V10.0113Z" fill="currentColor"/><path fill-rule="evenodd" clip-rule="evenodd" d="M31.1558 6.95703C31.9842 6.95703 32.6558 7.6286 32.6558 8.45703V39.543C32.6558 40.3714 31.9842 41.043 31.1558 41.043C30.3273 41.043 29.6558 40.3714 29.6558 39.543V8.45703C29.6558 7.6286 30.3273 6.95703 31.1558 6.95703Z" fill="currentColor"/><path fill-rule="evenodd" clip-rule="evenodd" d="M8.5 16.2285C8.5 15.4001 9.17157 14.7285 10 14.7285H16.0445C16.8729 14.7285 17.5445 15.4001 17.5445 16.2285C17.5445 17.0569 16.8729 17.7285 16.0445 17.7285H10C9.17157 17.7285 8.5 17.0569 8.5 16.2285Z" fill="currentColor"/><path fill-rule="evenodd" clip-rule="evenodd" d="M8.5 24C8.5 23.1716 9.17157 22.5 10 22.5H16.0445C16.8729 22.5 17.5445 23.1716 17.5445 24C17.5445 24.8284 16.8729 25.5 16.0445 25.5H10C9.17157 25.5 8.5 24.8284 8.5 24Z" fill="currentColor"/><path fill-rule="evenodd" clip-rule="evenodd" d="M8.5 31.7715C8.5 30.9431 9.17157 30.2715 10 30.2715H16.0445C16.8729 30.2715 17.5445 30.9431 17.5445 31.7715C17.5445 32.5999 16.8729 33.2715 16.0445 33.2715H10C9.17157 33.2715 8.5 32.5999 8.5 31.7715Z" fill="currentColor"/></svg>

<svg xmlns="http://www.w3.org/2000/svg" aria-hidden="true" viewBox="0 0 48 48"><path fill="currentColor" fill-rule="evenodd" d="M14.529 9.977a.1.1 0 0 0-.006.034V37.99q0 .024.005.034l.012.02h21.142l.012-.02a.1.1 0 0 0 .006-.034V10.01a.1.1 0 0 0-.006-.034l-.012-.02H14.54l-.011.02m-3.006.034c0-1.646 1.308-3.054 3.01-3.054H35.69c1.703 0 3.011 1.408 3.011 3.054v27.98c0 1.646-1.308 3.054-3.01 3.054H14.533c-1.703 0-3.011-1.408-3.011-3.054z" clip-rule="evenodd"/><path fill="currentColor" fill-rule="evenodd" d="M31.156 6.957a1.5 1.5 0 0 1 1.5 1.5v31.086a1.5 1.5 0 0 1-3 0V8.457a1.5 1.5 0 0 1 1.5-1.5M8.5 16.229a1.5 1.5 0 0 1 1.5-1.5h6.044a1.5 1.5 0 0 1 0 3H10a1.5 1.5 0 0 1-1.5-1.5M8.5 24a1.5 1.5 0 0 1 1.5-1.5h6.044a1.5 1.5 0 0 1 0 3H10A1.5 1.5 0 0 1 8.5 24m0 7.772a1.5 1.5 0 0 1 1.5-1.5h6.044a1.5 1.5 0 0 1 0 3H10a1.5 1.5 0 0 1-1.5-1.5" clip-rule="evenodd"/></svg>
